X:91
T:Easter Elachies
M:4/4
L:1/8
K:D
F2 AB AFEF|(3DED DD Dgfe|dBAF EDFE|1 DA,A,B, D2 FE :|2 DA,A,B, D2 de|
dAdf eeec|dAdf Adfd|gefd e2 ec|dAAB d2 de|
dAdf eBBe|dfBe AdFA|gefd e2 eB|dAAB d2 de |>|
